X:336
T:Skylark
Z: id:dc-reel-313
M:C
L:1/8
K:D Major
f|agfg efdB|AFF2 DFAd|BGG2 EGBG|FAA2 FAdf|!
agfg efdB|AFF2 DFAd|BGG2 E2ag|faeg fdd:|!
f|a2fd Adfd|efed cAA2|a2fa bged|ceed efge|!
faa2 gbb2|faef dBAG|FAdc B2ag|faeg fdd:|!

